X:827
T:Saighdear Ruadh
R:Reel
C:James Stewart-Robertson
B:The Athole Collection
M:C|
L:1/8
K:G
e/f/|:gG G/G/G BGBd|ABcd edef|gG G/G/G BGBd|edef g2 g>f:|
|:g2 g>d BGdB|g2 g>e fgab|1 g2 g>d BGdB|ABcd e2 de:|2
gfgd BGdB|ABcd edef||

